svg/fluentui-system-icons/ic_fluent_arrow_turn_bidirectional_down_right_20_filled.svg

<svg width="20" height="20" viewBox="0 0 20 20" fill="none" xmlns="http://www.w3.org/2000/svg">
<path d="M13.7803 2.21967C13.4874 1.92678 13.0126 1.92678 12.7197 2.21967C12.4268 2.51256 12.4268 2.98744 12.7197 3.28033L15.4393 6H9C7.34315 6 6 7.34315 6 9V15.4393L3.28033 12.7197C2.98744 12.4268 2.51256 12.4268 2.21967 12.7197C1.92678 13.0126 1.92678 13.4874 2.21967 13.7803L6.21967 17.7803C6.51256 18.0732 6.98744 18.0732 7.28033 17.7803L11.2803 13.7803C11.5732 13.4874 11.5732 13.0126 11.2803 12.7197C10.9874 12.4268 10.5126 12.4268 10.2197 12.7197L7.5 15.4393V9C7.5 8.17157 8.17157 7.5 9 7.5H15.4393L12.7197 10.2197C12.4268 10.5126 12.4268 10.9874 12.7197 11.2803C13.0126 11.5732 13.4874 11.5732 13.7803 11.2803L17.7803 7.28033C18.0732 6.98744 18.0732 6.51256 17.7803 6.21967L13.7803 2.21967Z" fill="#212121"/>
</svg>

<svg xmlns="http://www.w3.org/2000/svg" width="20" height="20"><path d="M13.78 2.22a.75.75 0 1 0-1.06 1.06L15.44 6H9a3 3 0 0 0-3 3v6.44l-2.72-2.72a.75.75 0 0 0-1.06 1.06l4 4a.75.75 0 0 0 1.06 0l4-4a.75.75 0 1 0-1.06-1.06L7.5 15.44V9A1.5 1.5 0 0 1 9 7.5h6.44l-2.72 2.72a.75.75 0 1 0 1.06 1.06l4-4a.75.75 0 0 0 0-1.06l-4-4Z"/></svg>
